X: 102
T: 8 Les Madelonnettes
T: les Madelonnettes
B: Robert Landrin "Potpourri fran\,cois des contre-danse ancienne tel quil se danse chez la Reine ..." 1760 p.10 #2 dance 03 #2
S: http://memory.loc.gov/cgi-bin/query/D?musdibib:2:./temp/~ammem_EbRS:
Z: 2014 John Chambers <jc:trillian.mit.edu>
M: 2/2
L: 1/8
K: G
% - - - - - - - - - - - - - - - - - - - - - - - - -
GBdB |\
GBdB G2!+!F2 | G2D2 GBdB |\
GBdB G2!+!F2 | G4 :|\
|: DF"2f"AF |\
DFAF DFAB | c4 Bcd2 |
d2cB AGFE | D4 DFAF |\
DFAF DFAB | c4 Bcd2 |\
d2cB AGAF | G4 |]\
"2f"G,A,B,C |\
D2CB, A,2G,2 |
D2D2 G,A,B,C |\
D2CB, A,2G,2 | D4 D2G2 |\
!+!F2E2 F2G2 | AGAB c2!+!B2 |\
A2G2 FGAF | G4 :|
% - - - - - - - - - - - - - - - - - - - - - - - - -

%%sep 1 1 500
%%sep 1 1 500
